X:1007
T:Baille de Los Pollos (CT 112)
R:Panderu
C:Tradicional
S:Música Tradicional Asturiana, (C) Tello & Tito. Asturies, 2001.
S:http://pagina.de/MusTradAst <telloytito@asturies.org>
N:Canción de Baille de Los Pollos, dictada por Alfredo García Muñiz, de diez y ocho años, de Llanuces, ayuntamiento de Quirós.
O:Llanuces (Quirós)
A:Asturies
Z:Cancioneru de Torner 112
M:2/4
L:1/8
Q:1/4=132
W:Cuatro pañolinos tengo,
W:todos cuatro colorados,
W:cuatro mozos me cortejen
W:y tres viven engañados.
W:
W:Y tres viven engañados,
W:no hay que lo descir al mundo,
W:que el día que yo me case,
W:yo me contento con uno.
K:C
|dd d_e|d2 (cB)|c2 c2|d_e fe|d2 (c_e)|d2 d2|
dd d_e|d2 (cB)|c2 c2|d2 c2|B3 A|c2 (BA)|G2 G2 :||


